src/assets/svg/ic_bezier.svg

<svg xmlns="http://www.w3.org/2000/svg" width="16" height="16">
    <path d="M15 5H9a1 1 0 00-1-1H7a1 1 0 00-1 1H0v1h3.7a5.29 5.29 0 00-1 .84A7 7 0 001 11a1 1 0 00-1 1v1a1 1 0 001 1h1a1 1 0 001-1v-1a1 1 0 00-1-1 6 6 0 011.4-3.49A4.7 4.7 0 016 6.15 1 1 0 007 7h1a1 1 0 001-.85 4.69 4.69 0 012.6 1.36A6 6 0 0113 11a1 1 0 00-1 1v1a1 1 0 001 1h1a1 1 0 001-1v-1a1 1 0 00-1-1 7 7 0 00-1.68-4.16 5.29 5.29 0 00-1-.84H15zM2 13H1v-1h1zm12 0h-1v-1h1z"/>
</svg>

<svg id="icons" xmlns="http://www.w3.org/2000/svg" width="16" height="16" viewBox="0 0 16 16"><title>bezier</title><path d="M15,5H9A1,1,0,0,0,8,4H7A1,1,0,0,0,6,5H0V6H3.7a5.29,5.29,0,0,0-1,.84A7,7,0,0,0,1,11H1a1,1,0,0,0-1,1v1a1,1,0,0,0,1,1H2a1,1,0,0,0,1-1V12a1,1,0,0,0-1-1,6,6,0,0,1,1.4-3.49A4.7,4.7,0,0,1,6,6.15,1,1,0,0,0,7,7H8a1,1,0,0,0,1-.85,4.69,4.69,0,0,1,2.6,1.36A6,6,0,0,1,13,11a1,1,0,0,0-1,1v1a1,1,0,0,0,1,1h1a1,1,0,0,0,1-1V12a1,1,0,0,0-1-1h0a7,7,0,0,0-1.68-4.16,5.29,5.29,0,0,0-1-.84H15ZM2,13H1V12H2Zm12,0H13V12h1Z"/></svg>
